outputs/icons/action/info_round.svg

<svg xmlns="http://www.w3.org/2000/svg" width="1200" height="1200" fill="none"><g clip-path="url(#a)"><path fill="#000" d="M600 100c-276 0-500 224-500 500s224 500 500 500 500-224 500-500-224-500-500-500m0 750c-27.5 0-50-22.5-50-50V600c0-27.5 22.5-50 50-50s50 22.5 50 50v200c0 27.5-22.5 50-50 50m50-400H550V350h100z"/></g><defs><clipPath id="a"><path fill="#fff" d="M0 0h1200v1200H0z"/></clipPath></defs></svg>

<svg width="1200" height="1200" viewBox="0 0 1200 1200" fill="none" xmlns="http://www.w3.org/2000/svg"><g clip-path="url(#clip0_217_693)"><path d="M600 100C324 100 100 324 100 600C100 876 324 1100 600 1100C876 1100 1100 876 1100 600C1100 324 876 100 600 100ZM600 850C572.5 850 550 827.5 550 800V600C550 572.5 572.5 550 600 550C627.5 550 650 572.5 650 600V800C650 827.5 627.5 850 600 850ZM650 450H550V350H650V450Z" fill="black"/></g><defs><clipPath id="clip0_217_693"><path width="24" fill="white" d="M0 0H1200V1200H0V0z"/></clipPath></defs></svg>
